Yaru++/mimetypes/16/office-spreadsheet.svg

<svg height="16" viewBox="0 0 4.233125 4.233125" width="16" xmlns="http://www.w3.org/2000/svg" xmlns:xlink="http://www.w3.org/1999/xlink"><linearGradient id="a" gradientUnits="userSpaceOnUse" x1="2.116711" x2="2.116711" y1=".26457" y2="3.968555"><stop offset="0" stop-color="#fff"/><stop offset=".125" stop-color="#fff" stop-opacity=".098039"/><stop offset=".92500001" stop-color="#fff" stop-opacity=".098039"/><stop offset="1" stop-color="#fff" stop-opacity=".498039"/></linearGradient><linearGradient id="b" gradientTransform="matrix(0 -.00953618 .00953591 0 -.942985 4.473643)" gradientUnits="userSpaceOnUse" x1="459.03448" x2="35.310345" y1="419.23337" y2="207.36522"><stop offset="0" stop-color="#f2f2f2"/><stop offset="1" stop-color="#f9f9f9"/></linearGradient><path d="m1.3483186.26457027c-.1902367 0-.3444309.00368-.48573265.027388-.14130436.0237323-.28264046.0730958-.39065659.180858-.10801348.1077595-.15783472.2495506-.18137354.3911698-.02354675.14162183-.02677187.29644573-.02584852.48728563v.7652908 1.0314115c-.00079371.1900038.002381.3445631.0258485.4857352.0235468.1416192.0733574.2834104.18137354.3911699.10801613.1077621.24935223.1571389.39065659.1808576.14130167.023732.29549587.027388.48573257.027388h1.5367831c.1902367 0 .3440949-.00362.4852167-.027388.1411246-.0237584.2824766-.0735294.3901382-.1813736.1076616-.1078441.1571653-.249413.1808576-.3906539.0236949-.1412435.0273883-.2951308.0273883-.4857352v-1.0314115-.7937109l-1.0582812-1.05828133z" opacity=".1"/><path d="m1.3485197.26457027c-.74283152 0-.82275822.076299-.81911772.82063363v1.0313586 1.0313586c-.003651.7443342.0762862.8206336.81911772.8206336h1.5364921c.7428341 0 .8191203-.076289.8191203-.8206336v-1.0313586-1.0582813l-.7937109-.79371093z" fill="none" opacity=".2" stroke="#000" stroke-width=".529141"/><path d="m1.3485197.26457027c-.74283152 0-.82275822.076299-.81911772.82063363v1.0313586 1.0313586c-.003651.7443342.0762862.8206336.81911772.8206336h1.5364921c.7428341 0 .8191203-.076289.8191203-.8206336v-1.0313586-1.0582813l-.7937109-.79371093z" fill="url(#b)"/><path d="m1.058429 2.116563h2.116563v.793711h-2.116563z" fill="#fff"/><path d="m.92614368 1.4551367h2.38113292v.5291406h-2.38113292z" fill="#46a926" opacity=".35"/><path d="m.79385852 1.3228516v1.8519921h.79371098v-.2645703h-.5291406v-.2645703h.5291406v-.2645703h-.5291406v-.2645703h.5291406v.2645703h.2645704v-.2645703h.5291406v.2645703h.2645703v-.2645703h.5291407v.2645703h.2645703v-1.0582812zm.26457038.2645703h.5291406v.2645703h-.5291406zm.793711 0h.5291406v.2645703h-.5291406zm.7937109 0h.5291407v.2645703h-.5291407z" fill="#46a926"/><path d="m1.58757 2.645703h1.587422v1.058281h-1.587422z" fill="none" stroke="#b3b3b3" stroke-linecap="round" stroke-width=".529141"/><path d="m1.58757 2.645703h1.587422v1.058281h-1.587422z" fill="#fff"/><path d="m1.8521399 3.1748437v.2645704h.5291406v-.2645704z" fill="#2daaaa"/><path d="m2.3812805 2.9102734v.5291407h.5291407v-.5291407z" fill="#fdc92b"/><path d="m2.1167102.26457027v3.70398443h.7683915c.7428341 0 .8190304-.076236.8190304-.8205807v-1.0314115-1.0582813l-.7937109-.79371093z" fill="#fff" opacity=".2"/><path d="m.52928821 2.1165625v1.0314115c-.003651.7443342.0761989.8205807.81903039.8205807h1.5367831c.7428341 0 .8190304-.076236.8190304-.8205807v-1.0314115z" fill="#fff" opacity=".2"/><path d="m1.3483186.26457027c-.74283149 0-.82267089.076246-.81903039.82058073v1.0314115 1.0314115c-.003651.7443342.0761989.8205807.81903039.8205807h1.5367831c.7428341 0 .8190304-.076236.8190304-.8205807v-1.0314115-1.0582813l-.7937109-.79371093zm0 .2645703h1.5621026l.5291406.52914063v1.0582813 1.0314115c0 .1815667-.00582.3159975-.019631.3984058-.013811.082406-.029841.09959-.034103.1038651-.00426.00426-.021245.020293-.1033491.034103-.082112.013816-.2161962.019636-.3973767.019636h-1.5367834c-.1811778 0-.315397-.0063-.39788737-.02016-.082493-.013837-.10001551-.029235-.10438092-.033587-.004365-.00437-.0199486-.021324-.0335898-.1033491-.0136254-.08203-.0194988-.216564-.0185993-.3978899v-.0005292-1.0319062-1.0319274-.0005291c-.00079371-.18132863.004974-.31585993.0185993-.39789003.0136254-.08203.0292218-.098992.0335898-.1033491.004365-.00436.02188-.019737.10438092-.033587.0824904-.013837.21670957-.02016.39788737-.02016z" fill="url(#a)" opacity=".4"/><path d="m3.7041321 1.3228516v-.2645704l-.7937109-.79371093h-.2645704v.4049434.01553.00833c0 .54761033.073304.63205063.6221715.62936523z" opacity=".2"/><path d="m3.7041321 1.0581807-.7937109-.79361043v.2943848.012832.00688c0 .45177763.020822.48176403.4736364.47954953z" fill="#faf8f6"/></svg>

<?xml version="1.0" encoding="UTF-8" standalone="no"?>
<svg
   xmlns:dc="http://purl.org/dc/elements/1.1/"
   xmlns:cc="http://creativecommons.org/ns#"
   xmlns:rdf="http://www.w3.org/1999/02/22-rdf-syntax-ns#"
   xmlns:svg="http://www.w3.org/2000/svg"
   xmlns="http://www.w3.org/2000/svg"
   xmlns:xlink="http://www.w3.org/1999/xlink"
   xmlns:sodipodi="http://sodipodi.sourceforge.net/DTD/sodipodi-0.dtd"
   xmlns:inkscape="http://www.inkscape.org/namespaces/inkscape"
   height="16"
   viewBox="0 0 4.233125 4.233125"
   width="16"
   version="1.1"
   id="svg45"
   sodipodi:docname="office-spreadsheet.svg"
   inkscape:version="0.92.5 (2060ec1f9f, 2020-04-08)">
  <metadata
     id="metadata51">
    <rdf:RDF>
      <cc:Work
         rdf:about="">
        <dc:format>image/svg+xml</dc:format>
        <dc:type
           rdf:resource="http://purl.org/dc/dcmitype/StillImage" />
      </cc:Work>
    </rdf:RDF>
  </metadata>
  <defs
     id="defs49">
    <linearGradient
       gradientTransform="matrix(0.26457031,0,0,0.26457031,-84.662351,-62.438593)"
       inkscape:collect="always"
       xlink:href="#linearGradient927"
       id="linearGradient993"
       x1="328"
       y1="237"
       x2="328"
       y2="251"
       gradientUnits="userSpaceOnUse" />
    <linearGradient
       inkscape:collect="always"
       id="linearGradient927">
      <stop
         style="stop-color:#ffffff;stop-opacity:1;"
         offset="0"
         id="stop923" />
      <stop
         id="stop933"
         offset="0.125"
         style="stop-color:#ffffff;stop-opacity:0.09803922" />
      <stop
         id="stop931"
         offset="0.92500001"
         style="stop-color:#ffffff;stop-opacity:0.09803922" />
      <stop
         style="stop-color:#ffffff;stop-opacity:0.49803922"
         offset="1"
         id="stop925" />
    </linearGradient>
    <linearGradient
       inkscape:collect="always"
       xlink:href="#linearGradient4338"
       id="linearGradient920"
       gradientUnits="userSpaceOnUse"
       gradientTransform="matrix(0,-0.00953618,0.00953591,0,-0.94298468,4.4736432)"
       x1="459.03448"
       y1="419.23337"
       x2="35.310345"
       y2="207.36522" />
    <linearGradient
       inkscape:collect="always"
       id="linearGradient4338">
      <stop
         style="stop-color:#f2f2f2;stop-opacity:1"
         offset="0"
         id="stop4340" />
      <stop
         style="stop-color:#f9f9f9;stop-opacity:1"
         offset="1"
         id="stop4342" />
    </linearGradient>
  </defs>
  <sodipodi:namedview
     pagecolor="#ffffff"
     bordercolor="#666666"
     borderopacity="1"
     objecttolerance="10"
     gridtolerance="10"
     guidetolerance="10"
     inkscape:pageopacity="0"
     inkscape:pageshadow="2"
     inkscape:window-width="834"
     inkscape:window-height="480"
     id="namedview47"
     showgrid="false"
     inkscape:zoom="14.75"
     inkscape:cx="8"
     inkscape:cy="8"
     inkscape:window-x="0"
     inkscape:window-y="28"
     inkscape:window-maximized="0"
     inkscape:current-layer="svg45" />
  <linearGradient
     id="a"
     gradientUnits="userSpaceOnUse"
     x1="328"
     x2="328"
     y1="237"
     y2="251">
    <stop
       offset="0"
       stop-color="#fff"
       id="stop2" />
    <stop
       offset=".125"
       stop-color="#fff"
       stop-opacity=".098039"
       id="stop4" />
    <stop
       offset=".92500001"
       stop-color="#fff"
       stop-opacity=".098039"
       id="stop6" />
    <stop
       offset="1"
       stop-color="#fff"
       stop-opacity=".498039"
       id="stop8" />
  </linearGradient>
  <clipPath
     id="b">
    <path
       d="m325.09646 237c-2.80769 0-3.10979.28839-3.09603 3.10176v3.89824 3.89824c-.0138 2.81337.28834 3.10176 3.09603 3.10176h5.8075c2.8077 0 3.09604-.28835 3.09604-3.10176v-3.89824-3.89824c0-2.8134-.28835-3.10176-3.09604-3.10176z"
       id="path11" />
  </clipPath>
  <linearGradient
     id="c"
     gradientTransform="matrix(0 -.00953618 .00953591 0 -.942983 4.47364)"
     gradientUnits="userSpaceOnUse"
     x1="459.03448"
     x2="35.310345"
     y1="419.23337"
     y2="207.36522">
    <stop
       offset="0"
       stop-color="#f2f2f2"
       id="stop14" />
    <stop
       offset="1"
       stop-color="#f9f9f9"
       id="stop16" />
  </linearGradient>
  <path
     style="color:#000000;font-style:normal;font-variant:normal;font-weight:normal;font-stretch:normal;font-size:medium;line-height:normal;font-family:sans-serif;font-variant-ligatures:normal;font-variant-position:normal;font-variant-caps:normal;font-variant-numeric:normal;font-variant-alternates:normal;font-feature-settings:normal;text-indent:0;text-align:start;text-decoration:none;text-decoration-line:none;text-decoration-style:solid;text-decoration-color:#000000;letter-spacing:normal;word-spacing:normal;text-transform:none;writing-mode:lr-tb;direction:ltr;text-orientation:mixed;dominant-baseline:auto;baseline-shift:baseline;text-anchor:start;white-space:normal;shape-padding:0;clip-rule:nonzero;display:inline;overflow:visible;visibility:visible;opacity:0.1;isolation:auto;mix-blend-mode:normal;color-interpolation:sRGB;color-interpolation-filters:linearRGB;solid-color:#000000;solid-opacity:1;vector-effect:none;fill:#000000;fill-opacity:1;fill-rule:nonzero;stroke:none;stroke-width:0.52914065;stroke-linecap:butt;stroke-linejoin:miter;stroke-miterlimit:4;stroke-dasharray:none;stroke-dashoffset:0;stroke-opacity:1;marker:none;color-rendering:auto;image-rendering:auto;shape-rendering:auto;text-rendering:auto;enable-background:accumulate"
     d="m 1.3483186,0.26457027 c -0.1902367,0 -0.3444309,0.00368 -0.48573265,0.027388 -0.14130436,0.0237323 -0.28264046,0.0730958 -0.39065659,0.180858 C 0.36391588,0.58057577 0.31409464,0.72236687 0.29055582,0.86398607 0.26700907,1.0056079 0.26378395,1.1604318 0.2647073,1.3512717 V 2.1165625 3.147974 c -7.9371e-4,0.1900038 0.002381,0.3445631 0.0258485,0.4857352 0.0235468,0.1416192 0.0733574,0.2834104 0.18137354,0.3911699 0.10801613,0.1077621 0.24935223,0.1571389 0.39065659,0.1808576 0.14130167,0.023732 0.29549587,0.027388 0.48573257,0.027388 h 1.5367831 c 0.1902367,0 0.3440949,-0.00362 0.4852167,-0.027388 C 3.5114429,4.1819783 3.6527949,4.1322073 3.7604565,4.0243631 3.8681181,3.916519 3.9176218,3.7749501 3.9413141,3.6337092 3.965009,3.4924657 3.9687024,3.3385784 3.9687024,3.147974 V 2.1165625 1.3228516 L 2.9104212,0.26457027 Z"
     id="path997"
     inkscape:connector-curvature="0"
     sodipodi:nodetypes="scscccccccsscscscccs" />
  <path
     sodipodi:nodetypes="scccssscccs"
     inkscape:connector-curvature="0"
     id="path928"
     d="m 1.3485197,0.26457027 c -0.74283152,0 -0.82275822,0.076299 -0.81911772,0.82063363 v 1.0313586 1.0313586 c -0.003651,0.7443342 0.0762862,0.8206336 0.81911772,0.8206336 h 1.5364921 c 0.7428341,0 0.8191203,-0.076289 0.8191203,-0.8206336 V 2.1165625 1.0582812 L 2.9104212,0.26457027 Z"
     style="color:#000000;display:inline;overflow:visible;visibility:visible;opacity:0.2;fill:none;fill-opacity:1;fill-rule:nonzero;stroke:#000000;stroke-width:0.52914065;stroke-miterlimit:4;stroke-dasharray:none;stroke-opacity:1;marker:none;enable-background:accumulate" />
  <path
     style="color:#000000;display:inline;overflow:visible;visibility:visible;fill:url(#linearGradient920);fill-opacity:1;fill-rule:nonzero;stroke:none;stroke-width:0.26457033;marker:none;enable-background:accumulate"
     d="m 1.3485197,0.26457027 c -0.74283152,0 -0.82275822,0.076299 -0.81911772,0.82063363 v 1.0313586 1.0313586 c -0.003651,0.7443342 0.0762862,0.8206336 0.81911772,0.8206336 h 1.5364921 c 0.7428341,0 0.8191203,-0.076289 0.8191203,-0.8206336 V 2.1165625 1.0582812 L 2.9104212,0.26457027 Z"
     id="path918"
     inkscape:connector-curvature="0"
     sodipodi:nodetypes="scccssscccs" />
  <rect
     y="2.1165626"
     x="1.0584288"
     height="0.79371095"
     width="2.1165626"
     id="rect1814"
     style="display:inline;opacity:1;fill:#ffffff;fill-opacity:1;stroke:none;stroke-width:0.79371095;stroke-linecap:round;stroke-linejoin:round;stroke-miterlimit:4;stroke-dasharray:none;stroke-dashoffset:0;stroke-opacity:1;enable-background:new" />
  <path
     style="color:#000000;display:inline;overflow:visible;visibility:visible;opacity:0.35;fill:#46a926;fill-opacity:1;fill-rule:nonzero;stroke:none;stroke-width:0.15118305;marker:none;enable-background:new"
     d="M 0.92614368,1.4551367 H 3.3072766 V 1.9842773 H 0.92614368 Z"
     id="path1035"
     inkscape:connector-curvature="0"
     sodipodi:nodetypes="ccccc" />
  <path
     sodipodi:nodetypes="cccccccccccccccccccccccccccccccccccccc"
     id="path1033"
     d="M 0.79385852,1.3228516 V 3.1748437 H 1.5875695 V 2.9102734 H 1.0584289 V 2.6457031 H 1.5875695 V 2.3811328 H 1.0584289 V 2.1165625 H 1.5875695 V 2.3811328 H 1.8521399 V 2.1165625 H 2.3812805 V 2.3811328 H 2.6458508 V 2.1165625 H 3.1749915 V 2.3811328 H 3.4395618 V 1.3228516 Z M 1.0584289,1.5874219 H 1.5875695 V 1.8519922 H 1.0584289 Z m 0.793711,0 H 2.3812805 V 1.8519922 H 1.8521399 Z m 0.7937109,0 H 3.1749915 V 1.8519922 H 2.6458508 Z"
     style="color:#000000;display:inline;overflow:visible;visibility:visible;opacity:1;fill:#46a926;fill-opacity:1;fill-rule:nonzero;stroke:none;stroke-width:0.15118305;marker:none;enable-background:new"
     inkscape:connector-curvature="0" />
  <rect
     y="2.6457031"
     x="1.5875695"
     height="1.0582813"
     width="1.5874219"
     id="rect1804"
     style="display:inline;opacity:1;fill:none;fill-opacity:1;stroke:#b3b3b3;stroke-width:0.52914065;stroke-linecap:round;stroke-linejoin:miter;stroke-miterlimit:4;stroke-dasharray:none;stroke-dashoffset:0;stroke-opacity:1;enable-background:new" />
  <rect
     style="display:inline;opacity:1;fill:#ffffff;fill-opacity:1;stroke:none;stroke-width:0.79371095;stroke-linecap:round;stroke-linejoin:round;stroke-miterlimit:4;stroke-dasharray:none;stroke-dashoffset:0;stroke-opacity:1;enable-background:new"
     id="rect1806"
     width="1.5874219"
     height="1.0582813"
     x="1.5875695"
     y="2.6457031" />
  <path
     id="path1808"
     d="M 1.8521399,3.1748437 V 3.4394141 H 2.3812805 V 3.1748437 Z"
     style="display:inline;opacity:1;fill:#2daaaa;fill-opacity:1;stroke:none;stroke-width:0.26457033;stroke-linecap:round;stroke-linejoin:round;stroke-miterlimit:4;stroke-dasharray:none;stroke-dashoffset:0;stroke-opacity:1;enable-background:new"
     inkscape:connector-curvature="0"
     sodipodi:nodetypes="ccccc" />
  <path
     sodipodi:nodetypes="ccccc"
     inkscape:connector-curvature="0"
     style="display:inline;opacity:1;fill:#fdc92b;fill-opacity:1;stroke:none;stroke-width:0.26457033;stroke-linecap:round;stroke-linejoin:round;stroke-miterlimit:4;stroke-dasharray:none;stroke-dashoffset:0;stroke-opacity:1;enable-background:new"
     d="M 2.3812805,2.9102734 V 3.4394141 H 2.9104212 V 2.9102734 Z"
     id="path1812" />
  <path
     style="color:#000000;display:inline;overflow:visible;visibility:visible;opacity:0.2;fill:#ffffff;fill-opacity:1;fill-rule:nonzero;stroke:none;stroke-width:0.26457033;marker:none;enable-background:accumulate"
     d="M 2.1167102,0.26457027 V 3.9685547 h 0.7683915 c 0.7428341,0 0.8190304,-0.076236 0.8190304,-0.8205807 V 2.1165625 1.0582812 L 2.9104212,0.26457027 Z"
     id="path1009"
     inkscape:connector-curvature="0"
     sodipodi:nodetypes="ccsscccc" />
  <path
     style="color:#000000;display:inline;overflow:visible;visibility:visible;opacity:0.2;fill:#ffffff;fill-opacity:1;fill-rule:nonzero;stroke:none;stroke-width:0.26457033;marker:none;enable-background:accumulate"
     d="M 0.52928821,2.1165625 V 3.147974 c -0.003651,0.7443342 0.0761989,0.8205807 0.81903039,0.8205807 h 1.5367831 c 0.7428341,0 0.8190304,-0.076236 0.8190304,-0.8205807 V 2.1165625 Z"
     id="path1016"
     inkscape:connector-curvature="0" />
  <path
     style="color:#000000;font-style:normal;font-variant:normal;font-weight:normal;font-stretch:normal;font-size:medium;line-height:normal;font-family:sans-serif;font-variant-ligatures:normal;font-variant-position:normal;font-variant-caps:normal;font-variant-numeric:normal;font-variant-alternates:normal;font-feature-settings:normal;text-indent:0;text-align:start;text-decoration:none;text-decoration-line:none;text-decoration-style:solid;text-decoration-color:#000000;letter-spacing:normal;word-spacing:normal;text-transform:none;writing-mode:lr-tb;direction:ltr;text-orientation:mixed;dominant-baseline:auto;baseline-shift:baseline;text-anchor:start;white-space:normal;shape-padding:0;clip-rule:nonzero;display:inline;overflow:visible;visibility:visible;opacity:0.4;isolation:auto;mix-blend-mode:normal;color-interpolation:sRGB;color-interpolation-filters:linearRGB;solid-color:#000000;solid-opacity:1;vector-effect:none;fill:url(#linearGradient993);fill-opacity:1;fill-rule:nonzero;stroke:none;stroke-width:0.52914065;stroke-linecap:butt;stroke-linejoin:miter;stroke-miterlimit:4;stroke-dasharray:none;stroke-dashoffset:0;stroke-opacity:1;marker:none;color-rendering:auto;image-rendering:auto;shape-rendering:auto;text-rendering:auto;enable-background:accumulate"
     clip-path="none"
     d="m 1.3483186,0.26457027 c -0.74283149,0 -0.82267089,0.076246 -0.81903039,0.82058073 V 2.1165625 3.147974 c -0.003651,0.7443342 0.0761989,0.8205807 0.81903039,0.8205807 h 1.5367831 c 0.7428341,0 0.8190304,-0.076236 0.8190304,-0.8205807 V 2.1165625 1.0582812 L 2.9104212,0.26457027 Z m 0,0.2645703 H 2.9104212 L 3.4395618,1.0582812 V 2.1165625 3.147974 c 0,0.1815667 -0.00582,0.3159975 -0.019631,0.3984058 -0.013811,0.082406 -0.029841,0.09959 -0.034103,0.1038651 -0.00426,0.00426 -0.021245,0.020293 -0.1033491,0.034103 -0.082112,0.013816 -0.2161962,0.019636 -0.3973767,0.019636 H 1.3483186 c -0.1811778,0 -0.315397,-0.0063 -0.39788737,-0.02016 -0.082493,-0.013837 -0.10001551,-0.029235 -0.10438092,-0.033587 -0.004365,-0.00437 -0.0199486,-0.021324 -0.0335898,-0.1033491 -0.0136254,-0.08203 -0.0194988,-0.216564 -0.0185993,-0.3978899 V 3.1484687 2.1165625 1.0846351 1.084106 c -7.9371e-4,-0.18132863 0.004974,-0.31585993 0.0185993,-0.39789003 0.0136254,-0.08203 0.0292218,-0.098992 0.0335898,-0.1033491 0.004365,-0.00436 0.02188,-0.019737 0.10438092,-0.033587 0.0824904,-0.013837 0.21670957,-0.02016 0.39788737,-0.02016 z"
     id="path937"
     inkscape:connector-curvature="0"
     sodipodi:nodetypes="scccssscccsscccscccssccccccccsccs" />
  <path
     inkscape:connector-curvature="0"
     style="color:#000000;display:inline;overflow:visible;visibility:visible;opacity:0.2;fill:#000000;fill-opacity:1;fill-rule:nonzero;stroke:none;stroke-width:0.06614863;marker:none;enable-background:accumulate"
     d="M 3.7041321,1.3228516 V 1.0582812 L 2.9104212,0.26457027 H 2.6458508 v 0.4049434 0.01553 0.00833 c 0,0.54761033 0.073304,0.63205063 0.6221715,0.62936523 z"
     id="rect4158-0-3-62-2-3-7-3"
     sodipodi:nodetypes="ccccccscc" />
  <path
     inkscape:connector-curvature="0"
     style="color:#000000;display:inline;overflow:visible;visibility:visible;fill:#faf8f6;fill-opacity:1;fill-rule:nonzero;stroke:none;stroke-width:0.06614863;marker:none;enable-background:accumulate"
     d="M 3.7041321,1.0581807 2.9104212,0.26457027 v 0.2943848 0.012832 0.00688 c 0,0.45177763 0.020822,0.48176403 0.4736364,0.47954953 z"
     id="rect4158-0-3-62-6-5-5"
     sodipodi:nodetypes="ccccscc" />
</svg>
